!!!OTL: "Das Pathengeschenk" ALS HEINRICH JUNG GEBOREN
!!!ARE: Europa, Mitteleuropa, Deutschland, Niederrhein
!!!SCT: Z1020
!!!YEM: Copyright 1995, estate of Helmut Schaffrath.
**kern
*ICvox
*Ivox
*M6/8
*k[]
*a:
{8e
=1
4a
8ccn
4b
16ccn
16b
=2
4a
16b
16a
8g#
8r}
{16a
16b
=3
4ccn
8ccn
8dd
8ccn
8dd
=4
4.ee
4r}
{8e
=5
4a
8ccn
4b
16ccn
16b
=6
4a
16b
16a
8g#
8r}
{16a
16b
=7
4ccn
8ccn
8dd
8ccn
8dd
=8
4.ee
4r}
{8ee
=9
4ee
8dd
8ffn
8ee
8dd
=10
4ccn
16ee
16dd
4ccn}
{8ccn
=11
4dd
8dd
8ee
8dd
8ccn
=12
4b
16dd
16ccn
4b}
{8ee
=13
4dd
8ccn
4b
8a
=14
[4.g#
4g#]}
{8e
=15
4a
16ee
16dd
8.ccn
16dd
16b
16ccn
=16
4a
4.r}
==
!!!AGN: Romanze, Ballade
!!!ONB: ESAC (Essen Associative Code) Database: ZUCCAL
!!!AMT: compound duple
!!!AIN: vox
!!!EED: Helmut Schaffrath
!!!EEV: 1.0
*-
